documentation/public/assets/images/checkbox-dos-and-donts-05.svg

<svg width="88" height="18" viewBox="0 0 88 18" fill="none" xmlns="http://www.w3.org/2000/svg">
<rect x="0.975098" y="2" width="16" height="16" rx="3" fill="#1E71F6"/>
<path d="M12.455 5.34229C12.7157 4.98299 13.2346 4.89197 13.6138 5.13899C13.993 5.386 14.0891 5.87751 13.8284 6.2368L7.71738 14.6578C7.38339 15.118 6.66435 15.1132 6.33733 14.6485L4.11514 11.4906C3.85985 11.1278 3.96333 10.6376 4.34626 10.3958C4.7292 10.1539 5.24658 10.252 5.50187 10.6147L7.04131 12.8024L12.455 5.34229Z" fill="white"/>
<path d="M29.7603 8.76416H33.2534V13.6108C32.7293 13.7886 32.1893 13.9207 31.6333 14.0073C31.0819 14.0939 30.4644 14.1372 29.7808 14.1372C28.7417 14.1372 27.8644 13.9299 27.1489 13.5151C26.438 13.1004 25.8979 12.5103 25.5288 11.7446C25.1597 10.9744 24.9751 10.0607 24.9751 9.00342C24.9751 7.96891 25.1779 7.06657 25.5835 6.29639C25.9937 5.5262 26.5838 4.9292 27.354 4.50537C28.1287 4.07699 29.0584 3.86279 30.1431 3.86279C30.6991 3.86279 31.2254 3.9152 31.7222 4.02002C32.2235 4.12028 32.6883 4.26383 33.1167 4.45068L32.6724 5.4624C32.3032 5.3029 31.8953 5.16618 31.4487 5.05225C31.0067 4.93831 30.5487 4.88135 30.0747 4.88135C29.259 4.88135 28.5594 5.04997 27.9761 5.38721C27.3973 5.72445 26.953 6.20068 26.6431 6.81592C26.3377 7.43115 26.1851 8.16032 26.1851 9.00342C26.1851 9.8374 26.3195 10.5643 26.5884 11.1841C26.8573 11.7993 27.2765 12.2778 27.8462 12.6196C28.4159 12.9614 29.1496 13.1323 30.0474 13.1323C30.4985 13.1323 30.8859 13.1073 31.2095 13.0571C31.533 13.0024 31.827 12.9386 32.0913 12.8657V9.80322H29.7603V8.76416Z" fill="black"/>
<path d="M38.9067 6.37158C39.0571 6.37158 39.2144 6.3807 39.3784 6.39893C39.5425 6.4126 39.6883 6.43311 39.8159 6.46045L39.6724 7.51318C39.5493 7.48128 39.4126 7.45622 39.2622 7.43799C39.1118 7.41976 38.9705 7.41064 38.8384 7.41064C38.5376 7.41064 38.2528 7.47217 37.9839 7.59521C37.7196 7.7137 37.4871 7.88688 37.2866 8.11475C37.0861 8.33805 36.9289 8.60921 36.8149 8.92822C36.701 9.24268 36.644 9.59359 36.644 9.98096V14.0005H35.5024V6.5083H36.4458L36.5688 7.88916H36.6167C36.7716 7.61117 36.9585 7.35824 37.1772 7.13037C37.396 6.89795 37.6489 6.71338 37.936 6.57666C38.2277 6.43994 38.5513 6.37158 38.9067 6.37158Z" fill="black"/>
<path d="M44.0337 6.38525C44.9269 6.38525 45.59 6.58577 46.0229 6.98682C46.4559 7.38786 46.6724 8.02816 46.6724 8.90771V14.0005H45.8452L45.6265 12.8931H45.5718C45.3621 13.1665 45.1434 13.3966 44.9155 13.5835C44.6877 13.7658 44.4233 13.9048 44.1226 14.0005C43.8263 14.0916 43.4618 14.1372 43.0288 14.1372C42.5731 14.1372 42.1675 14.0575 41.812 13.8979C41.4611 13.7384 41.1831 13.4969 40.978 13.1733C40.7775 12.8498 40.6772 12.4396 40.6772 11.9429C40.6772 11.1955 40.9735 10.6213 41.5659 10.2202C42.1584 9.81917 43.0607 9.60042 44.2729 9.56396L45.5649 9.50928V9.05127C45.5649 8.40413 45.4259 7.95068 45.1479 7.69092C44.87 7.43115 44.478 7.30127 43.9722 7.30127C43.5802 7.30127 43.2065 7.35824 42.8511 7.47217C42.4956 7.5861 42.1584 7.72054 41.8394 7.87549L41.4907 7.01416C41.828 6.84098 42.2153 6.69287 42.6528 6.56982C43.0903 6.44678 43.5506 6.38525 44.0337 6.38525ZM45.5513 10.3091L44.4097 10.3569C43.4754 10.3934 42.8169 10.5461 42.4341 10.8149C42.0513 11.0838 41.8599 11.4644 41.8599 11.9565C41.8599 12.3849 41.9897 12.7017 42.2495 12.9067C42.5093 13.1118 42.8534 13.2144 43.2817 13.2144C43.9471 13.2144 44.4917 13.0298 44.9155 12.6606C45.3394 12.2915 45.5513 11.7378 45.5513 10.9995V10.3091Z" fill="black"/>
<path d="M57.145 6.37158C57.9699 6.37158 58.592 6.58805 59.0112 7.021C59.4305 7.44938 59.6401 8.13981 59.6401 9.09229V14.0005H58.519V9.14697C58.519 8.54085 58.3869 8.0874 58.1226 7.78662C57.8628 7.48128 57.4754 7.32861 56.9604 7.32861C56.2358 7.32861 55.7095 7.53825 55.3813 7.95752C55.0532 8.37679 54.8892 8.9943 54.8892 9.81006V14.0005H53.7612V9.14697C53.7612 8.74137 53.702 8.40413 53.5835 8.13525C53.4696 7.86637 53.2964 7.66585 53.064 7.53369C52.8361 7.39697 52.5467 7.32861 52.1958 7.32861C51.6991 7.32861 51.3003 7.43115 50.9995 7.63623C50.6987 7.84131 50.48 8.14665 50.3433 8.55225C50.2111 8.95329 50.145 9.44775 50.145 10.0356V14.0005H49.0103V6.5083H49.9263L50.0972 7.56787H50.1587C50.3091 7.30811 50.4982 7.08936 50.7261 6.91162C50.9539 6.73389 51.2091 6.59945 51.4917 6.5083C51.7743 6.41715 52.075 6.37158 52.394 6.37158C52.9637 6.37158 53.4399 6.47868 53.8228 6.69287C54.2101 6.90251 54.4904 7.2238 54.6636 7.65674H54.7251C54.9712 7.2238 55.3084 6.90251 55.7368 6.69287C56.1652 6.47868 56.6346 6.37158 57.145 6.37158Z" fill="black"/>
<path d="M70.106 6.37158C70.9308 6.37158 71.5529 6.58805 71.9722 7.021C72.3914 7.44938 72.6011 8.13981 72.6011 9.09229V14.0005H71.48V9.14697C71.48 8.54085 71.3478 8.0874 71.0835 7.78662C70.8237 7.48128 70.4364 7.32861 69.9214 7.32861C69.1968 7.32861 68.6704 7.53825 68.3423 7.95752C68.0142 8.37679 67.8501 8.9943 67.8501 9.81006V14.0005H66.7222V9.14697C66.7222 8.74137 66.6629 8.40413 66.5444 8.13525C66.4305 7.86637 66.2573 7.66585 66.0249 7.53369C65.797 7.39697 65.5076 7.32861 65.1567 7.32861C64.66 7.32861 64.2612 7.43115 63.9604 7.63623C63.6597 7.84131 63.4409 8.14665 63.3042 8.55225C63.172 8.95329 63.106 9.44775 63.106 10.0356V14.0005H61.9712V6.5083H62.8872L63.0581 7.56787H63.1196C63.27 7.30811 63.4591 7.08936 63.687 6.91162C63.9149 6.73389 64.1701 6.59945 64.4526 6.5083C64.7352 6.41715 65.036 6.37158 65.355 6.37158C65.9246 6.37158 66.4009 6.47868 66.7837 6.69287C67.1711 6.90251 67.4513 7.2238 67.6245 7.65674H67.686C67.9321 7.2238 68.2694 6.90251 68.6978 6.69287C69.1261 6.47868 69.5955 6.37158 70.106 6.37158Z" fill="black"/>
<path d="M77.7349 6.38525C78.6281 6.38525 79.2912 6.58577 79.7241 6.98682C80.1571 7.38786 80.3735 8.02816 80.3735 8.90771V14.0005H79.5464L79.3276 12.8931H79.2729C79.0633 13.1665 78.8446 13.3966 78.6167 13.5835C78.3888 13.7658 78.1245 13.9048 77.8237 14.0005C77.5275 14.0916 77.1629 14.1372 76.73 14.1372C76.2743 14.1372 75.8687 14.0575 75.5132 13.8979C75.1623 13.7384 74.8843 13.4969 74.6792 13.1733C74.4787 12.8498 74.3784 12.4396 74.3784 11.9429C74.3784 11.1955 74.6746 10.6213 75.2671 10.2202C75.8595 9.81917 76.7619 9.60042 77.9741 9.56396L79.2661 9.50928V9.05127C79.2661 8.40413 79.1271 7.95068 78.8491 7.69092C78.5711 7.43115 78.1792 7.30127 77.6733 7.30127C77.2814 7.30127 76.9077 7.35824 76.5522 7.47217C76.1968 7.5861 75.8595 7.72054 75.5405 7.87549L75.1919 7.01416C75.5291 6.84098 75.9165 6.69287 76.354 6.56982C76.7915 6.44678 77.2518 6.38525 77.7349 6.38525ZM79.2524 10.3091L78.1108 10.3569C77.1766 10.3934 76.5181 10.5461 76.1353 10.8149C75.7524 11.0838 75.561 11.4644 75.561 11.9565C75.561 12.3849 75.6909 12.7017 75.9507 12.9067C76.2104 13.1118 76.5545 13.2144 76.9829 13.2144C77.6483 13.2144 78.1929 13.0298 78.6167 12.6606C79.0405 12.2915 79.2524 11.7378 79.2524 10.9995V10.3091Z" fill="black"/>
<path d="M86.1157 6.37158C86.2661 6.37158 86.4233 6.3807 86.5874 6.39893C86.7515 6.4126 86.8973 6.43311 87.0249 6.46045L86.8813 7.51318C86.7583 7.48128 86.6216 7.45622 86.4712 7.43799C86.3208 7.41976 86.1795 7.41064 86.0474 7.41064C85.7466 7.41064 85.4618 7.47217 85.1929 7.59521C84.9285 7.7137 84.6961 7.88688 84.4956 8.11475C84.2951 8.33805 84.1379 8.60921 84.0239 8.92822C83.91 9.24268 83.853 9.59359 83.853 9.98096V14.0005H82.7114V6.5083H83.6548L83.7778 7.88916H83.8257C83.9806 7.61117 84.1675 7.35824 84.3862 7.13037C84.605 6.89795 84.8579 6.71338 85.145 6.57666C85.4367 6.43994 85.7603 6.37158 86.1157 6.37158Z" fill="black"/>
</svg>

<svg width="88" height="18" fill="none" xmlns="http://www.w3.org/2000/svg"><rect x=".98" y="2" width="16" height="16" rx="3" fill="#1E71F6"/><path d="M12.46 5.34a.86.86 0 0 1 1.15-.2c.38.25.48.74.22 1.1l-6.11 8.42a.86.86 0 0 1-1.38-.01l-2.22-3.16a.76.76 0 0 1 .23-1.1.86.86 0 0 1 1.15.22l1.54 2.2 5.42-7.47Z" fill="#fff"/><path d="M29.76 8.76h3.5v4.85a9.66 9.66 0 0 1-3.48.53 5.2 5.2 0 0 1-2.63-.62 4.06 4.06 0 0 1-1.62-1.78A6.29 6.29 0 0 1 24.98 9c0-1.03.2-1.93.6-2.7.41-.77 1-1.37 1.77-1.8a5.8 5.8 0 0 1 2.8-.64 7.64 7.64 0 0 1 2.97.6l-.45 1a8.2 8.2 0 0 0-1.22-.4c-.44-.12-.9-.18-1.38-.18-.81 0-1.51.17-2.1.5-.57.34-1.02.82-1.33 1.44A4.9 4.9 0 0 0 26.19 9c0 .84.13 1.56.4 2.18.27.62.69 1.1 1.26 1.44.57.34 1.3.51 2.2.51a7.71 7.71 0 0 0 2.04-.26V9.8h-2.33V8.76Zm9.14-2.39a4.27 4.27 0 0 1 .92.09l-.15 1.05a3.15 3.15 0 0 0-.83-.1 2.03 2.03 0 0 0-1.55.7c-.2.23-.36.5-.48.82-.1.31-.17.66-.17 1.05V14H35.5V6.5h.95l.12 1.39h.05c.15-.28.34-.53.56-.76a2.26 2.26 0 0 1 1.73-.76Zm5.13.02c.9 0 1.56.2 2 .6.43.4.64 1.04.64 1.92V14h-.82l-.22-1.12h-.06c-.2.28-.43.5-.65.7-.23.18-.5.31-.8.41a3.77 3.77 0 0 1-2.3-.1 1.9 1.9 0 0 1-.84-.73 2.3 2.3 0 0 1-.3-1.23c0-.74.3-1.32.89-1.72a5.2 5.2 0 0 1 2.7-.66l1.3-.05v-.46c0-.65-.14-1.1-.42-1.36a1.66 1.66 0 0 0-1.18-.39c-.39 0-.76.06-1.12.17-.35.12-.7.25-1.01.4L41.49 7a5.22 5.22 0 0 1 2.54-.62Zm1.52 3.92-1.14.05c-.93.03-1.6.19-1.98.45-.38.27-.57.65-.57 1.15 0 .42.13.74.39.95.26.2.6.3 1.03.3a2.4 2.4 0 0 0 1.64-.55c.42-.37.63-.92.63-1.66v-.7Zm11.6-3.94c.82 0 1.44.22 1.86.65.42.43.63 1.12.63 2.07V14h-1.12V9.15c0-.6-.13-1.06-.4-1.36-.26-.3-.64-.46-1.16-.46-.72 0-1.25.2-1.58.63-.33.42-.5 1.03-.5 1.85V14h-1.12V9.15c0-.4-.06-.75-.18-1.01a1.2 1.2 0 0 0-.52-.6 1.59 1.59 0 0 0-.86-.21c-.5 0-.9.1-1.2.3-.3.21-.52.52-.66.92-.13.4-.2.9-.2 1.49V14h-1.13V6.5h.92l.17 1.07h.06a2.27 2.27 0 0 1 1.33-1.06c.28-.1.59-.14.9-.14.57 0 1.05.1 1.43.32.39.21.67.53.84.97h.07c.24-.44.58-.76 1-.97.44-.21.9-.32 1.42-.32Zm12.95 0c.83 0 1.45.22 1.87.65.42.43.63 1.12.63 2.07V14h-1.12V9.15c0-.6-.13-1.06-.4-1.36-.26-.3-.64-.46-1.16-.46-.72 0-1.25.2-1.58.63-.33.42-.49 1.03-.49 1.85V14h-1.13V9.15c0-.4-.06-.75-.18-1.01a1.2 1.2 0 0 0-.52-.6 1.59 1.59 0 0 0-.86-.21c-.5 0-.9.1-1.2.3-.3.21-.52.52-.66.92-.13.4-.2.9-.2 1.49V14h-1.13V6.5h.92l.17 1.07h.06a2.27 2.27 0 0 1 1.33-1.06c.29-.1.59-.14.9-.14.57 0 1.05.1 1.43.32.4.21.67.53.84.97h.07c.24-.44.58-.76 1-.97.44-.21.9-.32 1.42-.32Zm7.63.02c.9 0 1.56.2 2 .6.43.4.64 1.04.64 1.92V14h-.82l-.22-1.12h-.06c-.2.28-.43.5-.65.7-.23.18-.5.31-.8.41a3.77 3.77 0 0 1-2.3-.1 1.9 1.9 0 0 1-.84-.73 2.3 2.3 0 0 1-.3-1.23c0-.74.3-1.32.89-1.72a5.2 5.2 0 0 1 2.7-.66l1.3-.05v-.46c0-.65-.14-1.1-.42-1.36a1.66 1.66 0 0 0-1.18-.39c-.39 0-.76.06-1.12.17-.35.12-.7.25-1.01.4L75.19 7a5.22 5.22 0 0 1 2.54-.62Zm1.52 3.92-1.14.05c-.93.03-1.6.19-1.97.45a1.3 1.3 0 0 0-.58 1.15c0 .42.13.74.4.95.25.2.6.3 1.02.3a2.4 2.4 0 0 0 1.64-.55c.42-.37.63-.92.63-1.66v-.7Zm6.87-3.94a4.28 4.28 0 0 1 .9.09l-.14 1.05a3.15 3.15 0 0 0-.83-.1 2.03 2.03 0 0 0-1.55.7c-.2.23-.36.5-.48.82-.11.31-.17.66-.17 1.05V14h-1.14V6.5h.94l.13 1.39h.05c.15-.28.34-.53.56-.76a2.26 2.26 0 0 1 1.73-.76Z" fill="#000"/></svg>
